skycalc/res/bigfield.svg

<?xml version="1.0" encoding="UTF-8" standalone="no"?>
<!-- Created with Inkscape (http://www.inkscape.org/) -->

<svg
   xmlns:dc="http://purl.org/dc/elements/1.1/"
   xmlns:cc="http://creativecommons.org/ns#"
   xmlns:rdf="http://www.w3.org/1999/02/22-rdf-syntax-ns#"
   xmlns:svg="http://www.w3.org/2000/svg"
   xmlns="http://www.w3.org/2000/svg"
   xmlns:xlink="http://www.w3.org/1999/xlink"
   xmlns:sodipodi="http://sodipodi.sourceforge.net/DTD/sodipodi-0.dtd"
   xmlns:inkscape="http://www.inkscape.org/namespaces/inkscape"
   id="svg2"
   version="1.1"
   inkscape:version="0.91 r13725"
   width="212.5"
   height="147.5"
   viewBox="0 0 212.5 147.5"
   sodipodi:docname="bigfield.svg"
   inkscape:export-filename="D:\Projekte\GitHub\detailed-skyrim-calculator\skycalc\res\bigfield_SELECTED_goal.png"
   inkscape:export-xdpi="72"
   inkscape:export-ydpi="72">
  <metadata
     id="metadata8">
    <rdf:RDF>
      <cc:Work
         rdf:about="">
        <dc:format>image/svg+xml</dc:format>
        <dc:type
           rdf:resource="http://purl.org/dc/dcmitype/StillImage" />
        <dc:title />
      </cc:Work>
    </rdf:RDF>
  </metadata>
  <defs
     id="defs6">
    <linearGradient
       inkscape:collect="always"
       id="linearGradient4220">
      <stop
         style="stop-color:#937e62;stop-opacity:1;"
         offset="0"
         id="stop4222" />
      <stop
         style="stop-color:#937e62;stop-opacity:0;"
         offset="1"
         id="stop4224" />
    </linearGradient>
    <linearGradient
       inkscape:collect="always"
       id="linearGradient4170">
      <stop
         style="stop-color:#000000;stop-opacity:1;"
         offset="0"
         id="stop4172" />
      <stop
         style="stop-color:#000000;stop-opacity:0;"
         offset="1"
         id="stop4174" />
    </linearGradient>
    <linearGradient
       inkscape:collect="always"
       id="linearGradient4162">
      <stop
         style="stop-color:#937e62;stop-opacity:1;"
         offset="0"
         id="stop4164" />
      <stop
         style="stop-color:#937e62;stop-opacity:0;"
         offset="1"
         id="stop4166" />
    </linearGradient>
    <linearGradient
       inkscape:collect="always"
       xlink:href="#linearGradient4162"
       id="linearGradient4168"
       x1="108.8125"
       y1="149.6875"
       x2="108.8125"
       y2="138.76302"
       gradientUnits="userSpaceOnUse" />
    <linearGradient
       inkscape:collect="always"
       xlink:href="#linearGradient4170"
       id="linearGradient4176"
       x1="107.5625"
       y1="-3.4375"
       x2="107.5625"
       y2="275"
       gradientUnits="userSpaceOnUse" />
    <filter
       inkscape:collect="always"
       style="color-interpolation-filters:sRGB"
       id="filter4188"
       x="-0.25113924"
       width="1.5022785"
       y="-0.37246559"
       height="1.7449312">
      <feGaussianBlur
         inkscape:collect="always"
         stdDeviation="20.800629"
         id="feGaussianBlur4190" />
    </filter>
    <linearGradient
       inkscape:collect="always"
       xlink:href="#linearGradient4220"
       id="linearGradient4226"
       x1="108.1875"
       y1="-6.25"
       x2="108.1875"
       y2="20"
       gradientUnits="userSpaceOnUse" />
    <filter
       inkscape:collect="always"
       style="color-interpolation-filters:sRGB"
       id="filter4250"
       x="-0.25113924"
       width="1.5022785"
       y="-0.37246559"
       height="1.7449312">
      <feGaussianBlur
         inkscape:collect="always"
         stdDeviation="20.800629"
         id="feGaussianBlur4252" />
    </filter>
  </defs>
  <sodipodi:namedview
     pagecolor="#ffffff"
     bordercolor="#666666"
     borderopacity="1"
     objecttolerance="10"
     gridtolerance="10"
     guidetolerance="10"
     inkscape:pageopacity="0"
     inkscape:pageshadow="2"
     inkscape:window-width="1600"
     inkscape:window-height="847"
     id="namedview4"
     showgrid="false"
     inkscape:zoom="3.2"
     inkscape:cx="99.522059"
     inkscape:cy="69.658264"
     inkscape:window-x="-8"
     inkscape:window-y="-8"
     inkscape:window-maximized="1"
     inkscape:current-layer="layer2" />
  <g
     inkscape:groupmode="layer"
     id="layer1"
     inkscape:label="FOCUS_fill"
     style="display:inline"
     sodipodi:insensitive="true">
    <rect
       style="opacity:1;fill:#080706;fill-opacity:1;fill-rule:nonzero;stroke:none;stroke-width:0.5;stroke-linecap:square;stroke-linejoin:round;stroke-miterlimit:4;stroke-dasharray:none;stroke-opacity:1"
       id="rect4134"
       width="210.625"
       height="145.625"
       x="0.9375"
       y="0.9375"
       rx="5"
       ry="5" />
    <path
       style="opacity:1;fill:#12110f;fill-opacity:1;fill-rule:nonzero;stroke:none;stroke-width:0.5;stroke-linecap:square;stroke-linejoin:round;stroke-miterlimit:4;stroke-dasharray:none;stroke-opacity:1;filter:url(#filter4188)"
       d="m 203.48633,14.652344 c -26.87405,0.879558 -53.7796,-0.129205 -80.66797,0.311333 C 84.203089,15.002808 45.410444,14.62732 6.9023438,15.263672 7.3592422,59.482119 6.2904885,104.18034 7.3457031,148.57422 c 22.0430789,-0.2766 44.2385719,0.0437 66.3574079,-0.0435 43.888439,-0.12151 88.448609,0.70949 131.927749,-0.68302 -0.5728,-43.81172 0.6127,-87.960358 -0.45281,-131.895212 0.61968,-1.642262 -0.76124,-1.26654 -1.69172,-1.300104 z"
       id="rect4140"
       inkscape:connector-curvature="0" />
    <path
       inkscape:connector-curvature="0"
       id="path4192"
       d="m 203.48633,14.652344 c -26.87405,0.879558 -53.7796,-0.129205 -80.66797,0.311333 C 84.203089,15.002808 45.410444,14.62732 6.9023438,15.263672 7.3592422,59.482119 6.2904885,104.18034 7.3457031,148.57422 c 22.0430789,-0.2766 44.2385719,0.0437 66.3574079,-0.0435 43.888439,-0.12151 88.448609,0.70949 131.927749,-0.68302 -0.5728,-43.81172 0.6127,-87.960358 -0.45281,-131.895212 0.61968,-1.642262 -0.76124,-1.26654 -1.69172,-1.300104 z"
       style="opacity:1;fill:#12110f;fill-opacity:1;fill-rule:nonzero;stroke:none;stroke-width:0.5;stroke-linecap:square;stroke-linejoin:round;stroke-miterlimit:4;stroke-dasharray:none;stroke-opacity:1;filter:url(#filter4188)" />
  </g>
  <g
     style="display:none"
     inkscape:label="error"
     id="g4256"
     inkscape:groupmode="layer"
     sodipodi:insensitive="true">
    <path
       style="opacity:1;fill:#f22613;fill-opacity:1;fill-rule:nonzero;stroke:none;stroke-width:0.5;stroke-linecap:square;stroke-linejoin:round;stroke-miterlimit:4;stroke-dasharray:none;stroke-opacity:1"
       d="m 5.9375,0.9375 c -2.77,0 -5,2.23 -5,5 l 0,135.625 c 0,2.77 2.23,5 5,5 l 200.625,0 c 2.77,0 5,-2.23 5,-5 l 0,-135.625 c 0,-2.77 -2.23,-5 -5,-5 l -200.625,0 z m 0,2.7578125 200.625,0 c 1.29024,0 2.24219,0.9519505 2.24219,2.2421875 l 0,135.625 c 0,1.29024 -0.95195,2.24219 -2.24219,2.24219 l -200.625,0 c -1.290237,0 -2.2421875,-0.95195 -2.2421875,-2.24219 l 0,-135.625 c 0,-1.290237 0.9519505,-2.2421875 2.2421875,-2.2421875 z"
       id="rect4258"
       inkscape:connector-curvature="0" />
  </g>
  <g
     style="display:inline"
     inkscape:label="FOCUS_lines"
     id="g4136"
     inkscape:groupmode="layer"
     sodipodi:insensitive="true">
    <rect
       ry="5"
       rx="5"
       y="0.9375"
       x="0.9375"
       height="145.625"
       width="210.625"
       id="rect4138"
       style="opacity:1;fill:none;fill-opacity:1;fill-rule:nonzero;stroke:url(#linearGradient4176);stroke-width:0.5;stroke-linecap:square;stroke-linejoin:round;stroke-miterlimit:4;stroke-dasharray:none;stroke-opacity:1" />
    <rect
       style="opacity:1;fill:none;fill-opacity:1;fill-rule:nonzero;stroke:url(#linearGradient4168);stroke-width:0.5;stroke-linecap:square;stroke-linejoin:round;stroke-miterlimit:4;stroke-dasharray:none;stroke-opacity:1"
       id="rect4160"
       width="210.625"
       height="145.625"
       x="0.9375"
       y="0.9375"
       rx="5"
       ry="5" />
  </g>
  <g
     style="display:none"
     inkscape:label="NOTFOCUSED_fill"
     id="g4194"
     inkscape:groupmode="layer"
     sodipodi:insensitive="true">
    <rect
       style="opacity:1;fill:#1a1816;fill-opacity:1;fill-rule:nonzero;stroke:none;stroke-width:0.5;stroke-linecap:square;stroke-linejoin:round;stroke-miterlimit:4;stroke-dasharray:none;stroke-opacity:1"
       id="rect4232"
       width="210.625"
       height="145.625"
       x="0.9375"
       y="0.9375"
       rx="5"
       ry="5"
       inkscape:export-xdpi="72"
       inkscape:export-ydpi="72" />
    <path
       style="opacity:1;fill:#2f2924;fill-opacity:1;fill-rule:nonzero;stroke:none;stroke-width:0.5;stroke-linecap:square;stroke-linejoin:round;stroke-miterlimit:4;stroke-dasharray:none;stroke-opacity:1;filter:url(#filter4250)"
       d="m 203.48633,-1.3476562 c -26.87405,0.8795577 -53.7796,-0.1292051 -80.66797,0.3113327 C 84.203089,-0.9971919 45.410444,-1.3726797 6.9023438,-0.7363281 7.3592422,43.482119 6.2904885,88.180337 7.3457031,132.57422 c 22.0430789,-0.2766 44.2385719,0.0437 66.3574079,-0.0435 43.888439,-0.12151 88.448609,0.70949 131.927749,-0.68302 -0.5728,-43.811716 0.6127,-87.960358 -0.45281,-131.8952118 0.61968,-1.6422623 -0.76124,-1.26654 -1.69172,-1.3001044 z"
       id="rect4242"
       inkscape:connector-curvature="0" />
    <path
       inkscape:connector-curvature="0"
       id="path4254"
       d="m 203.48633,-1.3476562 c -26.87405,0.8795577 -53.7796,-0.1292051 -80.66797,0.3113327 C 84.203089,-0.9971919 45.410444,-1.3726797 6.9023438,-0.7363281 7.3592422,43.482119 6.2904885,88.180337 7.3457031,132.57422 c 22.0430789,-0.2766 44.2385719,0.0437 66.3574079,-0.0435 43.888439,-0.12151 88.448609,0.70949 131.927749,-0.68302 -0.5728,-43.811716 0.6127,-87.960358 -0.45281,-131.8952118 0.61968,-1.6422623 -0.76124,-1.26654 -1.69172,-1.3001044 z"
       style="opacity:1;fill:#2f2924;fill-opacity:1;fill-rule:nonzero;stroke:none;stroke-width:0.5;stroke-linecap:square;stroke-linejoin:round;stroke-miterlimit:4;stroke-dasharray:none;stroke-opacity:1;filter:url(#filter4250)" />
  </g>
  <g
     inkscape:groupmode="layer"
     id="g4202"
     inkscape:label="NOTFOCUSED_lines"
     style="display:none"
     sodipodi:insensitive="true">
    <rect
       style="opacity:1;fill:none;fill-opacity:1;fill-rule:nonzero;stroke:#000000;stroke-width:0.5;stroke-linecap:square;stroke-linejoin:round;stroke-miterlimit:4;stroke-dasharray:none;stroke-opacity:1"
       id="rect4206"
       width="210.625"
       height="145.625"
       x="0.9375"
       y="0.9375"
       rx="5"
       ry="5" />
    <path
       style="opacity:1;fill:none;fill-opacity:1;fill-rule:nonzero;stroke:url(#linearGradient4226);stroke-width:0.5;stroke-linecap:square;stroke-linejoin:round;stroke-miterlimit:4;stroke-dasharray:none;stroke-opacity:1"
       d="m 6.5625,1.5625 199.375,0 c 2.77,0 5,2.23 5,5 l 0,134.375 c 0,2.77 -2.23,5 -5,5 l -199.375,0 c -2.77,0 -5,-2.23 -5,-5 l 0,-134.375 c 0,-2.77 2.23,-5 5,-5 z"
       id="rect4208"
       inkscape:connector-curvature="0"
       sodipodi:nodetypes="sssssssss" />
  </g>
  <g
     inkscape:groupmode="layer"
     id="layer2"
     inkscape:label="text">
    <text
       xml:space="preserve"
       style="font-style:normal;font-weight:normal;font-size:35px;line-height:125%;font-family:sans-serif;text-align:start;letter-spacing:0px;word-spacing:0px;text-anchor:start;fill:#000000;fill-opacity:1;stroke:none;stroke-width:1px;stroke-linecap:butt;stroke-linejoin:miter;stroke-opacity:1"
       x="12.983496"
       y="26.3125"
       id="text4165"
       sodipodi:linespacing="125%"><tspan
         sodipodi:role="line"
         id="tspan4167"
         x="12.983496"
         y="26.3125"
         style="font-style:normal;font-variant:normal;font-weight:bold;font-stretch:normal;font-size:16.25px;font-family:Norse;-inkscape-font-specification:'Norse Bold';text-align:start;text-anchor:start;fill:#584d45;fill-opacity:1">Y O U R   G O A L :</tspan></text>
  </g>
</svg>

<?xml version="1.0" encoding="UTF-8" standalone="no"?>
<!-- Created with Inkscape (http://www.inkscape.org/) -->

<svg
   xmlns:dc="http://purl.org/dc/elements/1.1/"
   xmlns:cc="http://creativecommons.org/ns#"
   xmlns:rdf="http://www.w3.org/1999/02/22-rdf-syntax-ns#"
   xmlns:svg="http://www.w3.org/2000/svg"
   xmlns="http://www.w3.org/2000/svg"
   xmlns:xlink="http://www.w3.org/1999/xlink"
   xmlns:sodipodi="http://sodipodi.sourceforge.net/DTD/sodipodi-0.dtd"
   xmlns:inkscape="http://www.inkscape.org/namespaces/inkscape"
   id="svg2"
   version="1.1"
   inkscape:version="0.91 r13725"
   width="212.5"
   height="147.5"
   viewBox="0 0 212.5 147.5"
   sodipodi:docname="bigfield.svg"
   inkscape:export-filename="D:\Projekte\GitHub\detailed-skyrim-calculator\skycalc\res\bigfield_ERROR.png"
   inkscape:export-xdpi="72"
   inkscape:export-ydpi="72">
  <metadata
     id="metadata8">
    <rdf:RDF>
      <cc:Work
         rdf:about="">
        <dc:format>image/svg+xml</dc:format>
        <dc:type
           rdf:resource="http://purl.org/dc/dcmitype/StillImage" />
        <dc:title />
      </cc:Work>
    </rdf:RDF>
  </metadata>
  <defs
     id="defs6">
    <linearGradient
       inkscape:collect="always"
       id="linearGradient4220">
      <stop
         style="stop-color:#937e62;stop-opacity:1;"
         offset="0"
         id="stop4222" />
      <stop
         style="stop-color:#937e62;stop-opacity:0;"
         offset="1"
         id="stop4224" />
    </linearGradient>
    <linearGradient
       inkscape:collect="always"
       id="linearGradient4170">
      <stop
         style="stop-color:#000000;stop-opacity:1;"
         offset="0"
         id="stop4172" />
      <stop
         style="stop-color:#000000;stop-opacity:0;"
         offset="1"
         id="stop4174" />
    </linearGradient>
    <linearGradient
       inkscape:collect="always"
       id="linearGradient4162">
      <stop
         style="stop-color:#937e62;stop-opacity:1;"
         offset="0"
         id="stop4164" />
      <stop
         style="stop-color:#937e62;stop-opacity:0;"
         offset="1"
         id="stop4166" />
    </linearGradient>
    <linearGradient
       inkscape:collect="always"
       xlink:href="#linearGradient4162"
       id="linearGradient4168"
       x1="108.8125"
       y1="149.6875"
       x2="108.8125"
       y2="138.76302"
       gradientUnits="userSpaceOnUse" />
    <linearGradient
       inkscape:collect="always"
       xlink:href="#linearGradient4170"
       id="linearGradient4176"
       x1="107.5625"
       y1="-3.4375"
       x2="107.5625"
       y2="275"
       gradientUnits="userSpaceOnUse" />
    <filter
       inkscape:collect="always"
       style="color-interpolation-filters:sRGB"
       id="filter4188"
       x="-0.25113924"
       width="1.5022785"
       y="-0.37246559"
       height="1.7449312">
      <feGaussianBlur
         inkscape:collect="always"
         stdDeviation="20.800629"
         id="feGaussianBlur4190" />
    </filter>
    <linearGradient
       inkscape:collect="always"
       xlink:href="#linearGradient4220"
       id="linearGradient4226"
       x1="108.1875"
       y1="-6.25"
       x2="108.1875"
       y2="20"
       gradientUnits="userSpaceOnUse" />
    <filter
       inkscape:collect="always"
       style="color-interpolation-filters:sRGB"
       id="filter4250"
       x="-0.25113924"
       width="1.5022785"
       y="-0.37246559"
       height="1.7449312">
      <feGaussianBlur
         inkscape:collect="always"
         stdDeviation="20.800629"
         id="feGaussianBlur4252" />
    </filter>
  </defs>
  <sodipodi:namedview
     pagecolor="#ffffff"
     bordercolor="#666666"
     borderopacity="1"
     objecttolerance="10"
     gridtolerance="10"
     guidetolerance="10"
     inkscape:pageopacity="0"
     inkscape:pageshadow="2"
     inkscape:window-width="1600"
     inkscape:window-height="847"
     id="namedview4"
     showgrid="false"
     inkscape:zoom="3.2"
     inkscape:cx="88.477253"
     inkscape:cy="69.658264"
     inkscape:window-x="-8"
     inkscape:window-y="-8"
     inkscape:window-maximized="1"
     inkscape:current-layer="g4256" />
  <g
     inkscape:groupmode="layer"
     id="layer1"
     inkscape:label="FOCUS_fill"
     style="display:inline"
     sodipodi:insensitive="true">
    <rect
       style="opacity:1;fill:#080706;fill-opacity:1;fill-rule:nonzero;stroke:none;stroke-width:0.5;stroke-linecap:square;stroke-linejoin:round;stroke-miterlimit:4;stroke-dasharray:none;stroke-opacity:1"
       id="rect4134"
       width="210.625"
       height="145.625"
       x="0.9375"
       y="0.9375"
       rx="5"
       ry="5" />
    <path
       style="opacity:1;fill:#12110f;fill-opacity:1;fill-rule:nonzero;stroke:none;stroke-width:0.5;stroke-linecap:square;stroke-linejoin:round;stroke-miterlimit:4;stroke-dasharray:none;stroke-opacity:1;filter:url(#filter4188)"
       d="m 203.48633,14.652344 c -26.87405,0.879558 -53.7796,-0.129205 -80.66797,0.311333 C 84.203089,15.002808 45.410444,14.62732 6.9023438,15.263672 7.3592422,59.482119 6.2904885,104.18034 7.3457031,148.57422 c 22.0430789,-0.2766 44.2385719,0.0437 66.3574079,-0.0435 43.888439,-0.12151 88.448609,0.70949 131.927749,-0.68302 -0.5728,-43.81172 0.6127,-87.960358 -0.45281,-131.895212 0.61968,-1.642262 -0.76124,-1.26654 -1.69172,-1.300104 z"
       id="rect4140"
       inkscape:connector-curvature="0" />
    <path
       inkscape:connector-curvature="0"
       id="path4192"
       d="m 203.48633,14.652344 c -26.87405,0.879558 -53.7796,-0.129205 -80.66797,0.311333 C 84.203089,15.002808 45.410444,14.62732 6.9023438,15.263672 7.3592422,59.482119 6.2904885,104.18034 7.3457031,148.57422 c 22.0430789,-0.2766 44.2385719,0.0437 66.3574079,-0.0435 43.888439,-0.12151 88.448609,0.70949 131.927749,-0.68302 -0.5728,-43.81172 0.6127,-87.960358 -0.45281,-131.895212 0.61968,-1.642262 -0.76124,-1.26654 -1.69172,-1.300104 z"
       style="opacity:1;fill:#12110f;fill-opacity:1;fill-rule:nonzero;stroke:none;stroke-width:0.5;stroke-linecap:square;stroke-linejoin:round;stroke-miterlimit:4;stroke-dasharray:none;stroke-opacity:1;filter:url(#filter4188)" />
  </g>
  <g
     style="display:inline"
     inkscape:label="error"
     id="g4256"
     inkscape:groupmode="layer">
    <path
       style="opacity:1;fill:#f22613;fill-opacity:1;fill-rule:nonzero;stroke:none;stroke-width:0.5;stroke-linecap:square;stroke-linejoin:round;stroke-miterlimit:4;stroke-dasharray:none;stroke-opacity:1"
       d="M 5.9375 0.9375 C 3.1675 0.9375 0.9375 3.1675 0.9375 5.9375 L 0.9375 141.5625 C 0.9375 144.3325 3.1675 146.5625 5.9375 146.5625 L 206.5625 146.5625 C 209.3325 146.5625 211.5625 144.3325 211.5625 141.5625 L 211.5625 5.9375 C 211.5625 3.1675 209.3325 0.9375 206.5625 0.9375 L 5.9375 0.9375 z M 5.9375 3.6953125 L 206.5625 3.6953125 C 207.85274 3.6953125 208.80469 4.647263 208.80469 5.9375 L 208.80469 141.5625 C 208.80469 142.85274 207.85274 143.80469 206.5625 143.80469 L 5.9375 143.80469 C 4.647263 143.80469 3.6953125 142.85274 3.6953125 141.5625 L 3.6953125 5.9375 C 3.6953125 4.647263 4.647263 3.6953125 5.9375 3.6953125 z "
       id="rect4258" />
  </g>
  <g
     style="display:inline"
     inkscape:label="FOCUS_lines"
     id="g4136"
     inkscape:groupmode="layer"
     sodipodi:insensitive="true">
    <rect
       ry="5"
       rx="5"
       y="0.9375"
       x="0.9375"
       height="145.625"
       width="210.625"
       id="rect4138"
       style="opacity:1;fill:none;fill-opacity:1;fill-rule:nonzero;stroke:url(#linearGradient4176);stroke-width:0.5;stroke-linecap:square;stroke-linejoin:round;stroke-miterlimit:4;stroke-dasharray:none;stroke-opacity:1" />
    <rect
       style="opacity:1;fill:none;fill-opacity:1;fill-rule:nonzero;stroke:url(#linearGradient4168);stroke-width:0.5;stroke-linecap:square;stroke-linejoin:round;stroke-miterlimit:4;stroke-dasharray:none;stroke-opacity:1"
       id="rect4160"
       width="210.625"
       height="145.625"
       x="0.9375"
       y="0.9375"
       rx="5"
       ry="5" />
  </g>
  <g
     style="display:none"
     inkscape:label="NOTFOCUSED_fill"
     id="g4194"
     inkscape:groupmode="layer"
     sodipodi:insensitive="true">
    <rect
       style="opacity:1;fill:#1a1816;fill-opacity:1;fill-rule:nonzero;stroke:none;stroke-width:0.5;stroke-linecap:square;stroke-linejoin:round;stroke-miterlimit:4;stroke-dasharray:none;stroke-opacity:1"
       id="rect4232"
       width="210.625"
       height="145.625"
       x="0.9375"
       y="0.9375"
       rx="5"
       ry="5"
       inkscape:export-xdpi="72"
       inkscape:export-ydpi="72" />
    <path
       style="opacity:1;fill:#2f2924;fill-opacity:1;fill-rule:nonzero;stroke:none;stroke-width:0.5;stroke-linecap:square;stroke-linejoin:round;stroke-miterlimit:4;stroke-dasharray:none;stroke-opacity:1;filter:url(#filter4250)"
       d="m 203.48633,-1.3476562 c -26.87405,0.8795577 -53.7796,-0.1292051 -80.66797,0.3113327 C 84.203089,-0.9971919 45.410444,-1.3726797 6.9023438,-0.7363281 7.3592422,43.482119 6.2904885,88.180337 7.3457031,132.57422 c 22.0430789,-0.2766 44.2385719,0.0437 66.3574079,-0.0435 43.888439,-0.12151 88.448609,0.70949 131.927749,-0.68302 -0.5728,-43.811716 0.6127,-87.960358 -0.45281,-131.8952118 0.61968,-1.6422623 -0.76124,-1.26654 -1.69172,-1.3001044 z"
       id="rect4242"
       inkscape:connector-curvature="0" />
    <path
       inkscape:connector-curvature="0"
       id="path4254"
       d="m 203.48633,-1.3476562 c -26.87405,0.8795577 -53.7796,-0.1292051 -80.66797,0.3113327 C 84.203089,-0.9971919 45.410444,-1.3726797 6.9023438,-0.7363281 7.3592422,43.482119 6.2904885,88.180337 7.3457031,132.57422 c 22.0430789,-0.2766 44.2385719,0.0437 66.3574079,-0.0435 43.888439,-0.12151 88.448609,0.70949 131.927749,-0.68302 -0.5728,-43.811716 0.6127,-87.960358 -0.45281,-131.8952118 0.61968,-1.6422623 -0.76124,-1.26654 -1.69172,-1.3001044 z"
       style="opacity:1;fill:#2f2924;fill-opacity:1;fill-rule:nonzero;stroke:none;stroke-width:0.5;stroke-linecap:square;stroke-linejoin:round;stroke-miterlimit:4;stroke-dasharray:none;stroke-opacity:1;filter:url(#filter4250)" />
  </g>
  <g
     inkscape:groupmode="layer"
     id="g4202"
     inkscape:label="NOTFOCUSED_lines"
     style="display:none"
     sodipodi:insensitive="true">
    <rect
       style="opacity:1;fill:none;fill-opacity:1;fill-rule:nonzero;stroke:#000000;stroke-width:0.5;stroke-linecap:square;stroke-linejoin:round;stroke-miterlimit:4;stroke-dasharray:none;stroke-opacity:1"
       id="rect4206"
       width="210.625"
       height="145.625"
       x="0.9375"
       y="0.9375"
       rx="5"
       ry="5" />
    <path
       style="opacity:1;fill:none;fill-opacity:1;fill-rule:nonzero;stroke:url(#linearGradient4226);stroke-width:0.5;stroke-linecap:square;stroke-linejoin:round;stroke-miterlimit:4;stroke-dasharray:none;stroke-opacity:1"
       d="m 6.5625,1.5625 199.375,0 c 2.77,0 5,2.23 5,5 l 0,134.375 c 0,2.77 -2.23,5 -5,5 l -199.375,0 c -2.77,0 -5,-2.23 -5,-5 l 0,-134.375 c 0,-2.77 2.23,-5 5,-5 z"
       id="rect4208"
       inkscape:connector-curvature="0"
       sodipodi:nodetypes="sssssssss" />
  </g>
</svg>
